fs/table_edit_24_filled.svg

<svg viewBox="0 0 24 24" fill="none" xmlns="http://www.w3.org/2000/svg" height="1em" width="1em">
  <path d="M12.4902 19.8179C12.6082 19.3458 12.8524 18.9146 13.1965 18.5705L19.0984 12.6686C19.3764 12.3905 19.7083 12.1991 20.0605 12.0943C20.0778 12.0892 20.0952 12.0842 20.1126 12.0795C20.2364 12.0458 20.3625 12.0227 20.4895 12.0102C21.1469 11.9456 21.827 12.165 22.3306 12.6686C23.2231 13.5611 23.2231 15.0082 22.3306 15.9008L16.4287 21.8027C16.0846 22.1468 15.6534 22.3909 15.1813 22.5089L13.3508 22.9666C12.5547 23.1656 11.8336 22.4445 12.0327 21.6484L12.4902 19.8179ZM9.49943 20.9984H11.1644L11.5202 19.5754C11.6821 18.9274 12.0172 18.3357 12.4894 17.8635L14.354 15.9989H9.49943L9.49943 20.9984ZM15.9989 9.49943L15.9989 14.354L18.3913 11.9616C19.1051 11.2478 20.0657 10.9311 20.9984 11.0115V9.49943H15.9989ZM20.9984 7.99956V6.24971C20.9984 4.45495 19.5435 3 17.7487 3H15.9989V7.99956H20.9984ZM14.499 3H9.49943L9.49943 7.99956H14.499V3ZM7.99956 3H6.24971C4.45495 3 3 4.45495 3 6.24971V7.99956H7.99956L7.99956 3ZM3 9.49943V14.499H7.99956V9.49943H3ZM3 15.9989V17.7487C3 19.5435 4.45495 20.9984 6.24971 20.9984H7.99956L7.99956 15.9989H3ZM14.499 9.49943L14.499 14.499H9.49943V9.49943H14.499Z" fill="#212121"/>
</svg>

<svg viewBox="0 0 24 24" fill="none" xmlns="http://www.w3.org/2000/svg" height="1em" width="1em">
  <path d="M12.49 19.818c.118-.472.362-.903.707-1.248l5.901-5.901a2.274 2.274 0 0 1 1.392-.659 2.286 2.286 0 0 1 1.841 3.89l-5.902 5.903a2.685 2.685 0 0 1-1.248.706l-1.83.458a1.087 1.087 0 0 1-1.318-1.319l.457-1.83Zm-2.99 1.18h1.664l.356-1.423c.162-.648.497-1.24.97-1.712L14.353 16H9.499v5ZM15.998 9.5v4.855l2.392-2.392a3.279 3.279 0 0 1 2.607-.95V9.498h-5Zm5-1.5V6.25A3.25 3.25 0 0 0 17.748 3h-1.75v5h5Zm-6.5-5h-5v5h5V3Zm-6.5 0H6.25A3.25 3.25 0 0 0 3 6.25V8h5V3ZM3 9.5v4.999h5v-5H3Zm0 6.499v1.75a3.25 3.25 0 0 0 3.25 3.25H8v-5H3Zm11.499-6.5v5h-5v-5h5Z" fill="#212121"/>
</svg>
